icon/svg/1.16/transparent.svg

<?xml version="1.0" encoding="UTF-8"?>
<svg id="Layer_1" data-name="Layer 1" xmlns="http://www.w3.org/2000/svg" xmlns:xlink="http://www.w3.org/1999/xlink" viewBox="0 0 180 180">
  <defs>
    <filter id="drop-shadow-3" filterUnits="userSpaceOnUse">
      <feOffset dx="11.73" dy="11.73"/>
      <feGaussianBlur result="blur" stdDeviation="16.76"/>
      <feFlood flood-color="#000" flood-opacity=".9"/>
      <feComposite in2="blur" operator="in"/>
      <feComposite in="SourceGraphic"/>
    </filter>
  </defs>
  <path d="M158.61,101.45l-57.17,57.17c-6.32,6.31-16.57,6.31-22.88,0L21.39,101.45c-6.32-6.32-6.32-16.57,0-22.89L78.56,21.39c6.31-6.32,16.56-6.32,22.88,0l57.17,57.17c6.32,6.32,6.32,16.57,0,22.89Z" style="fill: #1e0808;"/>
  <g style="filter: url(#drop-shadow-3);">
    <path d="M158.61,101.45l-57.17,57.17c-6.32,6.31-16.57,6.31-22.88,0L21.39,101.45c-6.32-6.32-6.32-16.57,0-22.89L78.56,21.39c6.31-6.32,16.56-6.32,22.88,0l57.17,57.17c6.32,6.32,6.32,16.57,0,22.89Z" style="fill: none; stroke: #ff3939; stroke-miterlimit: 10; stroke-width: 13.77px;"/>
  </g>
  <g>
    <path d="M67.96,75.15c-.16-.49-.4-.85-.69-1.06-.3-.22-.73-.41-1.3-.57-.56-.17-1.35-.25-2.36-.25s-1.94,.43-2.8,1.29l-.15,.1-8.15,7.35c-1.19,1.06-1.79,2.04-1.79,2.93s.52,1.92,1.57,3.08c1.04,1.16,2.04,1.74,3,1.74s2.12-.51,3.48-1.54l.65-.59v17.73c0,.8,.02,1.4,.07,1.82,.05,.41,.21,.87,.47,1.36,.5,.86,1.77,1.3,3.83,1.3s3.41-.45,3.87-1.35c.27-.49,.43-.93,.48-1.31s.07-.95,.07-1.72v-27.67c0-1.19-.08-2.07-.25-2.64Z" style="fill: #fff;"/>
    <path d="M79.89,101.54c-.77-.7-2.15-1.05-4.15-1.05s-3.26,.5-3.75,1.49c-.27,.5-.43,.95-.48,1.35-.05,.39-.07,.97-.07,1.74v.19c0,1.76,.32,2.95,.97,3.58,.64,.63,1.97,.95,3.97,.95s3.26-.48,3.75-1.45c.3-.52,.48-.98,.53-1.36,.05-.38,.07-.97,.07-1.77v-.19c0-1.76-.28-2.92-.84-3.48Z" style="fill: #fff;"/>
    <path d="M99.96,75.15c-.17-.49-.4-.85-.7-1.06-.29-.22-.72-.41-1.29-.57-.56-.17-1.35-.25-2.36-.25s-1.94,.43-2.81,1.29l-.14,.1-8.15,7.35c-1.19,1.06-1.79,2.04-1.79,2.93s.52,1.92,1.56,3.08c1.05,1.16,2.05,1.74,3.01,1.74s2.12-.51,3.48-1.54l.64-.59v17.73c0,.8,.03,1.4,.08,1.82,.05,.41,.21,.87,.47,1.36,.5,.86,1.77,1.3,3.83,1.3s3.41-.45,3.87-1.35c.27-.49,.42-.93,.47-1.31s.08-.95,.08-1.72v-27.67c0-1.19-.08-2.07-.25-2.64Z" style="fill: #fff;"/>
    <path d="M125.27,91.28c-2.33-2.17-5.14-3.26-8.42-3.26-1.22,0-2.45,.29-3.67,.85l.24-.7c.34-1.09,1.23-2.32,2.69-3.67,.73-.67,1.73-1.23,3-1.69,1.28-.47,2.6-.7,3.95-.7s2.32-.1,2.89-.3c.43-.13,.76-.35,.99-.64,.23-.3,.43-.73,.6-1.3,.16-.56,.24-1.32,.24-2.28s-.1-1.76-.29-2.39c-.2-.62-.59-1.1-1.17-1.41-.58-.32-1.5-.47-2.76-.47-6.23,0-11.14,2.12-14.73,6.36-3.6,4.24-5.39,9.52-5.39,15.85,0,4.37,1.09,7.94,3.28,10.7,2.18,2.77,5.43,4.15,9.74,4.15,3.41,0,6.31-1.12,8.71-3.38,2.41-2.25,3.61-5.05,3.61-8.39,0-2.72-1.17-5.16-3.51-7.33Zm-9.01,10.95c-1.66,0-2.72-.38-3.18-1.14-.24-.4-.39-.76-.48-1.09-.08-.33-.12-.81-.12-1.44s.34-1.25,1.02-1.87c.68-.61,1.66-.92,2.93-.92s2.2,.34,2.78,1c.58,.66,.87,1.37,.87,2.13,0,2.22-1.27,3.33-3.82,3.33Z" style="fill: #fff;"/>
  </g>
</svg>

<?xml version="1.0" encoding="UTF-8" standalone="no"?>
<!DOCTYPE svg PUBLIC "-//W3C//DTD SVG 1.1//EN" "http://www.w3.org/Graphics/SVG/1.1/DTD/svg11.dtd">
<svg width="100%" height="100%" viewBox="0 0 180 180" version="1.1" xmlns="http://www.w3.org/2000/svg" xmlns:xlink="http://www.w3.org/1999/xlink" xml:space="preserve" xmlns:serif="http://www.serif.com/" style="fill-rule:evenodd;clip-rule:evenodd;stroke-miterlimit:10;">
    <g transform="matrix(1,0,0,1,-220,-1030)">
        <g transform="matrix(1,0,0,1,3,0)">
            <g id="_1.16-transparent" serif:id="1.16/transparent" transform="matrix(0.9,0,0,0.9,217,1030)">
                <rect x="0" y="0" width="200" height="200" style="fill:none;"/>
                <clipPath id="_clip1">
                    <rect x="0" y="0" width="200" height="200"/>
                </clipPath>
                <g clip-path="url(#_clip1)">
                    <g transform="matrix(1.11111,0,0,1.11111,-3.37508e-14,-0.00138889)">
                        <path d="M158.61,101.45L101.44,158.62C95.12,164.93 84.87,164.93 78.56,158.62L21.39,101.45C15.07,95.13 15.07,84.88 21.39,78.56L78.56,21.39C84.87,15.07 95.12,15.07 101.44,21.39L158.61,78.56C164.93,84.88 164.93,95.13 158.61,101.45Z" style="fill:rgb(30,8,8);fill-rule:nonzero;"/>
                    </g>
                    <g transform="matrix(1.11111,0,0,1.11111,-11.1111,-11.1111)">
                        <g transform="matrix(1,0,0,1,10,9.99875)">
                            <path d="M158.61,101.45L101.44,158.62C95.12,164.93 84.87,164.93 78.56,158.62L21.39,101.45C15.07,95.13 15.07,84.88 21.39,78.56L78.56,21.39C84.87,15.07 95.12,15.07 101.44,21.39L158.61,78.56C164.93,84.88 164.93,95.13 158.61,101.45Z" style="fill:none;fill-rule:nonzero;stroke:rgb(255,57,57);stroke-width:13.77px;"/>
                        </g>
                        <g transform="matrix(1,0,0,1,10,9.99875)">
                            <path d="M67.96,75.15C67.8,74.66 67.56,74.3 67.27,74.09C66.97,73.87 66.54,73.68 65.97,73.52C65.41,73.35 64.62,73.27 63.61,73.27C62.6,73.27 61.67,73.7 60.81,74.56L60.66,74.66L52.51,82.01C51.32,83.07 50.72,84.05 50.72,84.94C50.72,85.83 51.24,86.86 52.29,88.02C53.33,89.18 54.33,89.76 55.29,89.76C56.25,89.76 57.41,89.25 58.77,88.22L59.42,87.63L59.42,105.36C59.42,106.16 59.44,106.76 59.49,107.18C59.54,107.59 59.7,108.05 59.96,108.54C60.46,109.4 61.73,109.84 63.79,109.84C65.85,109.84 67.2,109.39 67.66,108.49C67.93,108 68.09,107.56 68.14,107.18C68.19,106.8 68.21,106.23 68.21,105.46L68.21,77.79C68.21,76.6 68.13,75.72 67.96,75.15Z" style="fill:white;fill-rule:nonzero;"/>
                        </g>
                        <g transform="matrix(1,0,0,1,10,9.99875)">
                            <path d="M79.89,101.54C79.12,100.84 77.74,100.49 75.74,100.49C73.74,100.49 72.48,100.99 71.99,101.98C71.72,102.48 71.56,102.93 71.51,103.33C71.46,103.72 71.44,104.3 71.44,105.07L71.44,105.26C71.44,107.02 71.76,108.21 72.41,108.84C73.05,109.47 74.38,109.79 76.38,109.79C78.38,109.79 79.64,109.31 80.13,108.34C80.43,107.82 80.61,107.36 80.66,106.98C80.71,106.6 80.73,106.01 80.73,105.21L80.73,105.02C80.73,103.26 80.45,102.1 79.89,101.54Z" style="fill:white;fill-rule:nonzero;"/>
                        </g>
                        <g transform="matrix(1,0,0,1,10,9.99875)">
                            <path d="M99.96,75.15C99.79,74.66 99.56,74.3 99.26,74.09C98.97,73.87 98.54,73.68 97.97,73.52C97.41,73.35 96.62,73.27 95.61,73.27C94.6,73.27 93.67,73.7 92.8,74.56L92.66,74.66L84.51,82.01C83.32,83.07 82.72,84.05 82.72,84.94C82.72,85.83 83.24,86.86 84.28,88.02C85.33,89.18 86.33,89.76 87.29,89.76C88.25,89.76 89.41,89.25 90.77,88.22L91.41,87.63L91.41,105.36C91.41,106.16 91.44,106.76 91.49,107.18C91.54,107.59 91.7,108.05 91.96,108.54C92.46,109.4 93.73,109.84 95.79,109.84C97.85,109.84 99.2,109.39 99.66,108.49C99.93,108 100.08,107.56 100.13,107.18C100.18,106.8 100.21,106.23 100.21,105.46L100.21,77.79C100.21,76.6 100.13,75.72 99.96,75.15Z" style="fill:white;fill-rule:nonzero;"/>
                        </g>
                        <g transform="matrix(1,0,0,1,10,9.99875)">
                            <path d="M125.27,91.28C122.94,89.11 120.13,88.02 116.85,88.02C115.63,88.02 114.4,88.31 113.18,88.87L113.42,88.17C113.76,87.08 114.65,85.85 116.11,84.5C116.84,83.83 117.84,83.27 119.11,82.81C120.39,82.34 121.71,82.11 123.06,82.11C124.41,82.11 125.38,82.01 125.95,81.81C126.38,81.68 126.71,81.46 126.94,81.17C127.17,80.87 127.37,80.44 127.54,79.87C127.7,79.31 127.78,78.55 127.78,77.59C127.78,76.63 127.68,75.83 127.49,75.2C127.29,74.58 126.9,74.1 126.32,73.79C125.74,73.47 124.82,73.32 123.56,73.32C117.33,73.32 112.42,75.44 108.83,79.68C105.23,83.92 103.44,89.2 103.44,95.53C103.44,99.9 104.53,103.47 106.72,106.23C108.9,109 112.15,110.38 116.46,110.38C119.87,110.38 122.77,109.26 125.17,107C127.58,104.75 128.78,101.95 128.78,98.61C128.78,95.89 127.61,93.45 125.27,91.28ZM116.26,102.23C114.6,102.23 113.54,101.85 113.08,101.09C112.84,100.69 112.69,100.33 112.6,100C112.52,99.67 112.48,99.19 112.48,98.56C112.48,97.93 112.82,97.31 113.5,96.69C114.18,96.08 115.16,95.77 116.43,95.77C117.7,95.77 118.63,96.11 119.21,96.77C119.79,97.43 120.08,98.14 120.08,98.9C120.08,101.12 118.81,102.23 116.26,102.23Z" style="fill:white;fill-rule:nonzero;"/>
                        </g>
                    </g>
                </g>
            </g>
        </g>
    </g>
</svg>
